src/assets/img/phone.svg

<svg width="12" height="20" viewBox="0 0 12 20" fill="none" xmlns="http://www.w3.org/2000/svg">
<path d="M5.6313 18.16C5.98441 18.16 6.27065 17.8555 6.27065 17.4799C6.27065 17.1043 5.98441 16.7998 5.6313 16.7998C5.2782 16.7998 4.99196 17.1043 4.99196 17.4799C4.99196 17.8555 5.2782 18.16 5.6313 18.16Z" fill="#252525"/>
<path d="M9.31935 0H1.94319C0.871652 0 0 0.927289 0 2.06702V17.933C0 19.0727 0.871736 20 1.94319 20H9.31944C10.3909 20 11.2626 19.0727 11.2626 17.933V2.06702C11.2625 0.927289 10.3909 0 9.31935 0ZM1.25345 4.04471H10.0091V15.1466H1.25345V4.04471ZM1.94319 1.33333H9.31944C9.69974 1.33333 10.0092 1.66249 10.0092 2.06702V2.71138H1.25345V2.06702C1.25345 1.66249 1.56281 1.33333 1.94319 1.33333ZM9.31935 18.6667H1.94319C1.56289 18.6667 1.25345 18.3375 1.25345 17.933V16.4798H10.0091V17.933C10.0091 18.3375 9.69974 18.6667 9.31935 18.6667Z" fill="#252525"/>
</svg>

<svg xmlns="http://www.w3.org/2000/svg" width="12" height="20" fill="none"><path fill="#252525" d="M5.6 18.2c.4 0 .7-.3.7-.7 0-.4-.3-.7-.7-.7-.3 0-.6.3-.6.7 0 .4.3.7.6.7Z"/><path fill="#252525" d="M9.3 0H2C1 0 0 1 0 2v16c0 1 .9 2 2 2h7.3c1 0 2-1 2-2V2c0-1-1-2-2-2Zm-8 4H10v11.1H1.3v-11Zm.6-2.7h7.4c.4 0 .7.4.7.8v.6H1.3v-.6c0-.4.3-.8.6-.8Zm7.4 17.4H2c-.3 0-.6-.4-.6-.8v-1.4H10v1.4c0 .4-.3.8-.7.8Z"/></svg>
